!!!COM:	la Rue, Pierre de
!!!CDT:	~1452///-1518/11/20
!!!OTL:	Ave regina celorum
!!!AGN:	Motet
!!!SCT:	Rue2001
!!!SCA:	Rue2001
!!!voices:	4
**kern	**kern	**kern	**kern
*staff4	*staff3	*staff2	*staff1
*Ivox	*Ivox	*Ivox	*Ivox
*I"Bassus	*I"Tenor	*I"Contra	*I"Discantus
*I'B	*I'T	*I'C	*I'D
*clefF4	*clefGv2	*clefGv2	*clefG2
*k[b-]	*k[b-]	*k[b-]	*k[b-]
*M2/1	*M2/1	*M2/1	*M2/1
*met(C2)	*met(C2)	*met(C2)	*met(C2)
!!section: Ave regina celorum
!!!OMD: Ave regina celorum
=1-	=1-	=1-	=1-
0r	0r	0r	0f
=2.	=2.	=2.	=2.
0r	0r	0r	1a
.	.	.	1b-
=3	=3	=3	=3
0r	0r	0c	2g/
.	.	.	1cc
.	.	.	4b-\
.	.	.	4a/
=4.	=4.	=4.	=4.
0r	0r	1e	1g
.	.	1f	2.a/
.	.	.	4g/
=5	=5	=5	=5
0r	0r	0d	2a/
.	.	.	2.b-\
.	.	.	4a/
.	.	.	4g/
.	.	.	4f/
=6.	=6.	=6.	=6.
0C	0r	[0c	0e
=7	=7	=7	=7
1E	0r	0c]	2r
.	.	.	2g/
1F	.	.	2a/
.	.	.	2cc\
=8.	=8.	=8.	=8.
[0D	0F	[0d	2b-\
.	.	.	2a/
.	.	.	2b-\
.	.	.	[2a/
=9	=9	=9	=9
1D]	1A	1d]	4a/]
.	.	.	4g/
.	.	.	4f/
.	.	.	4e/
1BB-	1B-	1d	2d/
.	.	.	[2g/
=10.	=10.	=10.	=10.
0C	0G	[0c	4g/]
.	.	.	4f/
.	.	.	4e/
.	.	.	4d/
.	.	.	1e
=11	=11	=11	=11
0r	0F	0c]	0f
=12.	=12.	=12.	=12.
0C	0c	0r	2r
.	.	.	2g/
.	.	.	2a/
.	.	.	[2g/
=13	=13	=13	=13
1C	1c	0r	2g/]
.	.	.	2e/
1BB-	1d	.	1f
=14.	=14.	=14.	=14.
1C	1c	2r	2e/
.	.	2e\	2cc\
[1F	2r	2f\	2dd\
.	2c\	[2a\	2cc\
=15	=15	=15	=15
2F\]	2d\	4a\]	1a
.	.	4g\	.
2F\	1c	1f	.
1F	.	.	1r
.	2A/	4e\	.
.	.	4d\	.
=16.	=16.	=16.	=16.
1G	1B-	1e	1r
1F	1A	2f\	2r
.	.	4e\	[2cc\
.	.	4d\	.
=17	=17	=17	=17
2r	0r	2c\	2cc\]
2F\	.	2f\	2a/
2G\	.	2e\	2b-\
[2F\	.	2f\	[2a/
=18.	=18.	=18.	=18.
2F\]	1r	1d	2a/]
2D\	.	.	2f/
1E	2r	1G	1g
.	2c\	.	.
=19	=19	=19	=19
1.D	1.d	0r	2f/
.	.	.	4f/
.	.	.	4g/
.	.	.	4a/
.	.	.	4b-\
2E\	2c\	.	[2cc\
=20.	=20.	=20.	=20.
1F	1A	2r	4cc\]
.	.	.	4b-\
.	.	1d	1a
1G	1B-	.	.
.	.	2d\	2g/
=21	=21	=21	=21
2F\	1A	1.f	0a
2F\	.	.	.
2D\	2r	.	.
[2F\	2c\	2f\	.
=22.	=22.	=22.	=22.
4F\]	2d\	1f	0r
4E\	.	.	.
4D\	2.c\	.	.
4C/	.	.	.
1D	.	1f	.
.	4Bni\	.	.
.	2Bni\	.	.
=23	=23	=23	=23
[0C	[0c	0e	0g
=24.	=24.	=24.	=24.
0C]	0c]	2r	1g
.	.	2e\	.
.	.	2e\	1g
.	.	2e\	.
=25	=25	=25	=25
0r	0r	2.c\	2.e/
.	.	4d\	4f/
.	.	2e\	2g/
.	.	[2f\	[2a/
=26.	=26.	=26.	=26.
1r	0r	4f\]	4a/]
.	.	4e\	4g/
.	.	4d\	4f/
.	.	4c\	4e/
1D	.	2.Bni\	1f
.	.	4A/	.
=27	=27	=27	=27
1C	2.c\	1c	1e
.	8B-\L	.	.
.	8c\J	.	.
2F\	2d\	1r	1r
[2F\	4c\	.	.
.	4B-\	.	.
=28.	=28.	=28.	=28.
4F\]	4A/	1r	1r
4E\	4G/	.	.
4D\	1c	.	.
4C/	.	.	.
1D	.	1F	2r
.	2Bni\	.	[2f/
=29	=29	=29	=29
0C	0c	0G	2f/]
.	.	.	4e/
.	.	.	4d/
.	.	.	1e
=30.	=30.	=30.	=30.
2r	1r	2F/	1d
1D	.	1f	.
.	1F	.	2r
4C/	.	4e\	[2f/
4BB-/	.	4d\	.
=31	=31	=31	=31
1BB-	1B-	1d	2f/]
.	.	.	2d/
1BB-	1B-	1d	[1f
=32.	=32.	=32.	=32.
0BB-	[0B-	1d	2f/]
.	.	.	4e/
.	.	.	4d/
.	.	[1f	2d/
.	.	.	[2b-\
=33	=33	=33	=33
0BB-	0B-]	2f\]	2b-\]
.	.	4e\	4a/
.	.	4d\	4g/
.	.	2f\	2b-\
.	.	2d\	2g/
=34.	=34.	=34.	=34.
2r	1r	2e\	2.g/
1B-	.	1d	.
.	.	.	4a/
.	[1G	.	4b-\
.	.	.	4g/
[2G\	.	[2g\	[2b-\
=35	=35	=35	=35
4G\]	1G]	4g\]	2b-\]
4A\	.	4f\	.
2B-\	.	4d\	2g/
.	.	4e\	.
2F\	2.c\	[1f	2a/
[2A\	.	.	[2cc\
.	4B-\	.	.
=36.	=36.	=36.	=36.
2A\]	1A	1f]	2cc\]
2F\	.	.	2a/
2G\	1G	2d\	2b-\
2E\	.	[2e\	[2g/
=37	=37	=37	=37
2C/	1c	2e\]	2g/]
1F	.	2c\	1a
.	2A/	2.d\	.
2D\	2B-\	.	2f/
.	.	4c\	.
=38.	=38.	=38.	=38.
1E	1G	4B-\	2.g/
.	.	4A/	.
.	.	1c	.
.	.	.	4f/
2C/	1A	.	4e/
.	.	.	4d/
2D\	.	2A/	[2f/
=39	=39	=39	=39
1BB-	1B-	1d	4f/]
.	.	.	4e/
.	.	.	2d/
1C	2G/	2c\	2e/
.	[2A/	[2c\	2c/
=40.	=40.	=40.	=40.
1D	2A/]	4c\]	2f/
.	.	4B-\	.
.	2F/	2B-\	2.f/
1C	1G	1c	.
.	.	.	4e/
.	.	.	2e/
=41	=41	=41	=41
1r	2.F/	2.A/	0f
.	4G/	4B-\	.
[1F	2A/	2c\	.
.	2B-\	2d\	.
=42.	=42.	=42.	=42.
1F]	2c\	2A/	0r
.	1d	1f	.
2D\	.	.	.
[2E-\	4c\	[2g\	.
.	4B-\	.	.
=43	=43	=43	=43
4E-\]	2c\	4g\]	0r
4D\	.	4f\	.
4C/	1B-	4e-i\	.
4BB-/	.	4d\	.
1C	.	1e-i	.
.	2A/	.	.
=44.	=44.	=44.	=44.
0BB-	0B-	1d	1r
.	.	2r	1b-
.	.	2d\	.
=45	=45	=45	=45
0r	0r	1g	1b-
.	.	2e\	2g/
.	.	[2f\	[2a/
=46.	=46.	=46.	=46.
1r	1r	4f\]	4a/]
.	.	4e\	4g/
.	.	4d\	4f/
.	.	4c\	4e/
1BB-	1d	2.B-\	2f/
.	.	.	2d/
.	.	4G/	.
=47	=47	=47	=47
2.C/	1c	1G	1e
4D\	.	.	.
4E\	2A/	1r	1r
4F\	.	.	.
[2G\	[2B-\	.	.
=48.	=48.	=48.	=48.
2G\]	4B-\]	1r	2r
.	4A/	.	.
1F	4G/	.	2c/
.	4F/	.	.
.	1G	1B-	2g/
2E\	.	.	2g/
=49	=49	=49	=49
1F	1F	2A/	2.a/
.	.	2d\	.
.	.	.	4b-\
1r	1r	2c\	2cc\
.	.	[2f\	[2dd\
=50.	=50.	=50.	=50.
2r	0r	4f\]	2dd\]
.	.	4e\	.
2C/	.	4d\	2.cc\
.	.	4c\	.
2G\	.	1d	.
.	.	.	4bni\
2G\	.	.	2bni\
=51	=51	=51	=51
2A\	1r	1c	1cc
2F\	.	.	.
2G\	2r	1r	1r
2E\	2c\	.	.
=52.	=52.	=52.	=52.
2F\	2d\	0r	0r
2G\	2B-\	.	.
2C/	2c\	.	.
[2D\	2A/	.	.
=53	=53	=53	=53
2D\]	2B-\	1r	0r
2C/	2c\	.	.
2AA/	2F/	2r	.
2C/	2A/	2c\	.
=54.	=54.	=54.	=54.
2BB-/	1G	2d\	0r
2GG/	.	2B-\	.
2AA/	2F/	2c\	.
2FF/	[2F/	2A/	.
=55	=55	=55	=55
1GG	4F/]	1B-	2r
.	4E/	.	.
.	2E/	.	2g/
1FF	1F	2A/	2a/
.	.	[2c\	2f/
=56.	=56.	=56.	=56.
0r	0r	4c\]	2g/
.	.	4B-\	.
.	.	2c\	2e/
.	.	2d\	2f/
.	.	[2e\	2g/
=57	=57	=57	=57
0r	0r	4e\]	2c/
.	.	4d\	.
.	.	1c	2e/
.	.	.	1d
.	.	2Bni\	.
=58.	=58.	=58.	=58.
2r	2r	1c	1c
2AA/	2C/	.	.
2BB-/	2D/	2r	1r
2C/	2E/	2c\	.
=59	=59	=59	=59
2FF/	2.F/	1c	0r
2.F\	.	.	.
.	4G/	.	.
.	4A/	2d\	.
4E\	4B-\	.	.
4D\	[2c\	2e\	.
4C/	.	.	.
=60.	=60.	=60.	=60.
1D	2c\]	1f	1r
.	2Bni\	.	.
1C	1c	2e\	2r
.	.	2c\	2e/
=61	=61	=61	=61
0r	0r	2d\	2f/
.	.	2e\	2g/
.	.	2A/	2c/
.	.	[2d\	[2f/
=62.	=62.	=62.	=62.
0r	0r	4d\]	4f/]
.	.	4c\	4e/
.	.	4B-\	4d/
.	.	4A/	4c/
.	.	4B-\	4d/
.	.	4A/	4c/
.	.	[2c\	[2g/
=63	=63	=63	=63
0r	0r	4c\]	2g/]
.	.	4B-\	.
.	.	2A/	2.f/
.	.	1G	.
.	.	.	4e/
.	.	.	2e/
=64.	=64.	=64.	=64.
0r	0r	0F	1f
.	.	.	1r
=65	=65	=65	=65
0F	0c	0f	0a
=66.	=66.	=66.	=66.
1F	1c	1f	1a
1F	1c	1f	1a
=67	=67	=67	=67
1C	[0c	2.e\	1g
.	.	4d\	.
2r	.	4c\	1a
.	.	4B-\	.
2F\	.	2A/	.
=68.	=68.	=68.	=68.
2E\	0c]	2r	2g/
1F	.	2.A/	1a
.	.	4B-\	.
4E\	.	[2c\	4g/
4D\	.	.	4f/
=69	=69	=69	=69
2E\	2r	2c\]	2g/
2F\	2F/	1A	2a/
1D	2A/	.	1f
.	2B-\	4G/	.
.	.	4F/	.
=70.	=70.	=70.	=70.
1C	1c	2G/	[0e
.	.	2A/	.
1r	1A	1E	.
=71	=71	=71	=71
[0C	2G/	2r	0e]
.	1A	2.c\	.
.	.	4d\	.
.	4G/	[2e\	.
.	4F/	.	.
=72.	=72.	=72.	=72.
1C]	2G/	4e\]	0r
.	.	4d\	.
.	2A/	1c	.
1D	1F	.	.
.	.	2Bni\	.
=73	=73	=73	=73
0C	0E	1c	1r
.	.	4c\	1cc
.	.	4d\	.
.	.	4e\	.
.	.	4f\	.
=74.	=74.	=74.	=74.
1r	0r	2g\	1b-
.	.	2e\	.
1F	.	1f	1a
=75	=75	=75	=75
1C	1r	0e	0g
4C/	1c	.	.
4D\	.	.	.
4E\	.	.	.
4F\	.	.	.
=76.	=76.	=76.	=76.
2G\	1B-	1r	0r
2E\	.	.	.
1F	1A	1f	.
=77	=77	=77	=77
0C	0G	2e\	1r
.	.	2.c\	.
.	.	.	1cc
.	.	4d\	.
.	.	4e\	.
.	.	4f\	.
=78.	=78.	=78.	=78.
1r	1r	2g\	1b-
.	.	2e\	.
1FF	[1c	1f	1a
=79	=79	=79	=79
2C/	2c\]	2e\	2g/
2.FF/	2c\	1f	1a
.	1c	.	.
4GG/	.	.	.
4AA/	.	4e\	4g/
4BB-/	.	4d\	4f/
=80.	=80.	=80.	=80.
0C	2c\	0c	2e/
.	2c\	.	4f/
.	.	.	4g/
.	2c\	.	2a/
.	4B-\	.	[2g/
.	4A/	.	.
=81	=81	=81	=81
1D	4B-\	1r	2g/]
.	4A/	.	.
.	4G/	.	1f
.	4F/	.	.
2r	1G	2r	.
2C/	.	2c\	2e/
=82.	=82.	=82.	=82.
2D\	0F	2A/	1f
4BB-/	.	1d	.
4C/	.	.	.
4D\	.	.	2r
4E\	.	.	.
[2F\	.	[2c\	[2a/
=83	=83	=83	=83
4F\]	0r	2c\]	4a/]
4G\	.	.	4b-\
4A\	.	2.f\	4cc\
4F\	.	.	4a/
1G	.	.	2b-\
.	.	4e\	.
.	.	2e\	2g/
=84.	=84.	=84.	=84.
1F	2r	1f	2a/
.	2.A/	.	2.cc\
1F	.	2r	.
.	4B-\	.	4b-\
.	4c\	2f\	2a/
.	4A/	.	.
=85	=85	=85	=85
2G\	2B-\	2d\	2g/
2E\	2G/	2e\	2.cc\
1F	2A/	2c\	.
.	.	.	4b-\
.	[2c\	2f\	[2a/
=86.	=86.	=86.	=86.
0C	4c\]	2.e\	2a/]
.	4B-\	.	.
.	2A/	.	4g/
.	.	4d\	4f/
.	1G	2c\	2.e/
.	.	2B-\	.
.	.	.	4f/
=87	=87	=87	=87
0FFl	0Fl	0Al	0fl
==	==	==	==
*-	*-	*-	*-
!!!RDF**kern: l=long note in original notation
!!!RDF**kern: i=editorial accidental
!!!ENC:	Chris Gage 12-06-2012
!!!END:	2013/05/17/
!!!EED:	Jesse Rodin
!!!EEV:	2013/07/20/
!!!ONB:	Translated from MusicXML and edited on 2013/07/20/ by Craig Sapp
!!muse2ps: C^@{COM}^i2I150v85,85,85,150Q16
